svg/furkot/mapbox-maki/mountain.svg

<svg viewBox="0 0 512 512" xmlns="http://www.w3.org/2000/svg"><path d="m256 39c-11.815 0-15.753 7.877-23.63 15.753l-228.432 374.154c-3.938 3.939-3.938 11.817-3.938 15.755 0 19.692 15.753 27.568 27.57 27.568h456.862c15.753 0 27.568-7.876 27.568-27.568 0-7.876 0-7.876-3.938-15.755l-224.492-374.154c-7.877-7.876-15.755-15.753-27.57-15.753zm0 59.076 129.969 216.617h-31.506l-59.078-59.078-39.385 59.078-39.385-59.078-59.076 59.078h-35.446z"/></svg>

<svg viewBox="0 0 512 512" xmlns="http://www.w3.org/2000/svg"><path d="M 256 39 C 244.185 39 240.247 46.877 232.37 54.753 L 3.938 428.907 C 0 432.846 0 440.724 0 444.662 C 0 464.354 15.753 472.23 27.57 472.23 L 484.432 472.23 C 500.185 472.23 512 464.354 512 444.662 C 512 436.786 512 436.786 508.062 428.907 L 283.57 54.753 C 275.693 46.877 267.815 39 256 39 Z M 256 98.076 L 385.969 314.693 L 354.463 314.693 L 295.385 255.615 L 256 314.693 L 216.615 255.615 L 157.539 314.693 L 122.093 314.693 L 256 98.076 Z"/></svg>
